packages/icons/src/SVG/redo.svg

<svg width="12" height="12" viewBox="0 0 12 12" fill="none" xmlns="http://www.w3.org/2000/svg">
<path d="M4.06306 1C1.82598 1 0.0237591 2.83469 0.0637006 5.07142C0.102646 7.25237 1.88176 9 4.06306 9H8.00001L8 11L12 8.5L8 6V8H4.06306C2.42709 8 1.09275 6.68928 1.06354 5.05356C1.03359 3.37602 2.38525 2 4.06306 2H12V1H4.06306Z" fill="#4C505B"/>
</svg>

<!-- Generated by IcoMoon.io -->
<svg version="1.1" xmlns="http://www.w3.org/2000/svg" width="12" height="12" viewBox="0 0 12 12">
<title>redo</title>
<path d="M4.063 1c-2.237 0-4.039 1.835-3.999 4.071 0.039 2.181 1.818 3.929 3.999 3.929h3.937l-0 2 4-2.5-4-2.5v2h-3.937c-1.636 0-2.97-1.311-3-2.946-0.030-1.678 1.322-3.054 3-3.054h7.937v-1h-7.937z"></path>
</svg>
